public/new_template/imgs/theme/newsletter-bottom-mid.svg

<svg width="11" height="39" viewBox="0 0 11 39" fill="none" xmlns="http://www.w3.org/2000/svg">
<g clip-path="url(#clip0_2_2)">
<rect width="1920" height="6070" transform="translate(-385 -5565)" fill="white"/>
<path d="M-14.6506 -234.753C-14.6506 -248.731 -14.6506 -255.72 -12.367 -261.233C-9.32214 -268.584 -3.48192 -274.424 3.86892 -277.469C9.38206 -279.753 16.3712 -279.753 30.3494 -279.753H1118.96C1132.94 -279.753 1139.93 -279.753 1145.44 -277.469C1152.79 -274.424 1158.64 -268.584 1161.68 -261.233C1163.96 -255.72 1163.96 -248.731 1163.96 -234.753V-5.96584C1163.96 8.0124 1163.96 15.0015 1161.68 20.5147C1158.64 27.8655 1152.79 33.7057 1145.44 36.7505C1139.93 39.0341 1132.94 39.0341 1118.96 39.0341H-14.6506V-234.753Z" fill="#0061FF" fill-opacity="0.15"/>
<path d="M-42.7128 -251.59C-42.7128 -265.569 -42.7128 -272.558 -40.4292 -278.071C-37.3844 -285.422 -31.5442 -291.262 -24.1933 -294.307C-18.6802 -296.59 -11.6911 -296.59 2.28717 -296.59H1147.03C1161 -296.59 1167.99 -296.59 1173.51 -294.307C1180.86 -291.262 1186.7 -285.422 1189.74 -278.071C1192.03 -272.558 1192.03 -265.569 1192.03 -251.59V-22.8032C1192.03 -8.825 1192.03 -1.83588 1189.74 3.67725C1186.7 11.0281 1180.86 16.8683 1173.51 19.9131C1167.99 22.1967 1161 22.1967 1147.03 22.1967H-42.7128V-251.59Z" fill="#0061FF" fill-opacity="0.3"/>
</g>
<defs>
<clipPath id="clip0_2_2">
<rect width="1920" height="6070" fill="white" transform="translate(-385 -5565)"/>
</clipPath>
</defs>
</svg>

<svg version="1.2" xmlns="http://www.w3.org/2000/svg" viewBox="0 0 11 39" width="11" height="39"><defs><clipPath clipPathUnits="userSpaceOnUse" id="cp1"><path d="m-385-5565h1920v6070h-1920z"/></clipPath></defs><style>.a{fill:#fff}.b{opacity:.1;fill:#d71a21}.c{opacity:.3;fill:#d71a21}</style><g clip-path="url(#cp1)"><path class="a" d="m-385-5565h1920v6070h-1920z"/><path class="b" d="m-14.7-234.8c0-13.9 0-20.9 2.3-26.4 3.1-7.4 8.9-13.2 16.3-16.3 5.5-2.3 12.5-2.3 26.4-2.3h1088.7c13.9 0 20.9 0 26.4 2.3 7.4 3.1 13.2 8.9 16.3 16.3 2.3 5.5 2.3 12.5 2.3 26.4v228.8c0 14 0 21-2.3 26.5-3.1 7.4-8.9 13.2-16.3 16.3-5.5 2.2-12.5 2.2-26.4 2.2h-1133.7z"/><path class="c" d="m-42.7-251.6c0-14 0-21 2.3-26.5 3-7.3 8.9-13.2 16.2-16.2 5.5-2.3 12.5-2.3 26.5-2.3h1144.7c14 0 21 0 26.5 2.3 7.4 3 13.2 8.9 16.2 16.2 2.3 5.5 2.3 12.5 2.3 26.5v228.8c0 14 0 21-2.3 26.5-3 7.3-8.8 13.2-16.2 16.2-5.5 2.3-12.5 2.3-26.5 2.3h-1189.7z"/></g></svg>
